X: 9104
T: Da Smugglers
R: jig
M: 6/8
K: Gmajor
|:BAB G2 A|B2 e edB|d3 d3|BAB G2 A|B2 e edB|1 A3 A3:|2 A3 e2 f||
g2 e f2 d|g2 e faf|d3 e2 f|g2 e f2 a|g2 e edB|A3 e2 f||
g2 e f2 d|g2 e a2 f|d3 e2 f|g2 e f2 a|g2 e edB|A3 A3||

